icon/ir/no-coin.svg

<svg stroke-width="1.5" viewBox="0 0 24 24" fill="none" xmlns="http://www.w3.org/2000/svg" height="1em" width="1em">
  <path d="M4.62323 5.24841C2.99408 7.02743 2 9.39765 2 12C2 17.5229 6.47715 22 12 22C14.5361 22 16.8517 21.0559 18.6146 19.5" stroke="currentColor" stroke-linecap="round" stroke-linejoin="round"/>
  <path d="M21.3021 15.6775C21.7525 14.5392 22 13.2985 22 12C22 6.47715 17.5228 2 12 2C10.7687 2 9.58934 2.22255 8.5 2.62961" stroke="currentColor" stroke-linecap="round" stroke-linejoin="round"/>
  <path d="M9 15C9.64448 15.8593 10.8428 16.3494 12 16.391C13.1141 16.431 14.1901 16.0554 14.6973 15.1933" stroke="currentColor" stroke-linecap="round" stroke-linejoin="round"/>
  <path d="M12 16.391V18.5" stroke="currentColor" stroke-linecap="round" stroke-linejoin="round"/>
  <path d="M9.5 9.5C9.5 10.6811 10.3525 11.1647 11.3862 11.5" stroke="currentColor" stroke-linecap="round" stroke-linejoin="round"/>
  <path d="M15 8.5C14.315 7.81501 13.1087 7.33855 12 7.30872V5.5" stroke="currentColor" stroke-linecap="round" stroke-linejoin="round"/>
  <path d="M3 3L21 21" stroke="currentColor" stroke-linecap="round" stroke-linejoin="round"/>
</svg>

<svg width="24" height="24" stroke-width="1.5" fill="none" xmlns="http://www.w3.org/2000/svg"><path d="M4.623 5.248A9.964 9.964 0 0 0 2 12c0 5.523 4.477 10 10 10a9.962 9.962 0 0 0 6.615-2.5M21.302 15.678A9.974 9.974 0 0 0 22 12c0-5.523-4.477-10-10-10-1.231 0-2.41.223-3.5.63" stroke="currentColor" stroke-linecap="round" stroke-linejoin="round"/><path d="M9 15c.644.86 1.843 1.35 3 1.391 1.114.04 2.19-.336 2.697-1.198M12 16.391V18.5M9.5 9.5c0 1.181.852 1.665 1.886 2M15 8.5c-.685-.685-1.891-1.161-3-1.191V5.5M3 3l18 18" stroke="currentColor" stroke-linecap="round" stroke-linejoin="round"/></svg>
